build/img/sprite/icon-vk.svg

<svg width="28" height="28" viewBox="0 0 28 28" fill="none" xmlns="http://www.w3.org/2000/svg">
<path fill-rule="evenodd" clip-rule="evenodd" d="M14 28C21.732 28 28 21.732 28 14C28 6.26801 21.732 0 14 0C6.26801 0 0 6.26801 0 14C0 21.732 6.26801 28 14 28ZM19.9085 15.7806C19.7608 15.6459 19.6132 15.5111 19.4676 15.3741C18.9719 14.908 18.9402 14.6375 19.3393 14.1008C19.5705 13.788 19.8114 13.4819 20.0522 13.1758C20.2638 12.9069 20.4753 12.638 20.6802 12.3647C20.6957 12.3441 20.7112 12.3234 20.7267 12.3027C21.1214 11.7762 21.5172 11.2482 21.7245 10.6192C21.8612 10.2027 21.7399 10.0191 21.2973 9.94642C21.2218 9.93398 21.143 9.93288 21.0652 9.93288L18.4384 9.93062C18.1148 9.92459 17.9356 10.0609 17.8215 10.3378C17.6674 10.7111 17.5084 11.0846 17.3235 11.4443C16.9069 12.2623 16.4405 13.0523 15.7871 13.7208C15.7777 13.7303 15.7683 13.74 15.7589 13.7497C15.6215 13.8911 15.4677 14.0494 15.242 13.9783C14.9406 13.8715 14.8523 13.3928 14.857 13.2315L14.8546 10.3095C14.7958 9.89277 14.7004 9.70673 14.2707 9.625H11.5415C11.1776 9.625 10.995 9.76133 10.8009 9.98034C10.6892 10.1073 10.6548 10.1901 10.8856 10.2323C11.3379 10.3149 11.5933 10.5978 11.6605 11.0347C11.7699 11.7348 11.7617 12.4361 11.6993 13.1386C11.6804 13.3428 11.6439 13.5482 11.5602 13.7388C11.4285 14.0395 11.2153 14.1008 10.9352 13.916C10.6821 13.749 10.5043 13.5119 10.33 13.2747C9.67534 12.3839 9.1538 11.4228 8.72757 10.4126C8.60394 10.1211 8.39197 9.94406 8.07178 9.93955C7.28304 9.9269 6.49534 9.92585 5.70754 9.9406C5.23311 9.94847 5.09183 10.1709 5.28501 10.5854C6.14324 12.4249 7.09814 14.2143 8.34507 15.8427C8.98551 16.679 9.7213 17.4177 10.6702 17.941C11.7464 18.5345 12.9049 18.7126 14.1257 18.6571C14.6969 18.632 14.8688 18.4879 14.8946 17.9398C14.9135 17.5641 14.957 17.1909 15.1489 16.8538C15.3373 16.5224 15.6234 16.4593 15.9531 16.6655C16.1179 16.7687 16.2558 16.8992 16.3876 17.0379C16.4916 17.1476 16.5943 17.2584 16.697 17.3691C16.912 17.6009 17.1269 17.8327 17.3531 18.0548C17.7709 18.4652 18.2678 18.7069 18.8906 18.6571L21.3055 18.6582C21.694 18.6332 21.8965 18.1737 21.6729 17.7561C21.5151 17.4623 21.3089 17.2011 21.091 16.948C20.7284 16.5291 20.3186 16.155 19.9085 15.7806Z" fill="#C6C4C2"/>
</svg>

<svg  viewBox="0 0 28 28">
  <defs/>
  <path fill-rule="evenodd" d="M14 28a14 14 0 100-28 14 14 0 000 28zm5.9-12.22l-.43-.4c-.5-.47-.53-.74-.13-1.28l.71-.92a43.9 43.9 0 00.68-.88c.4-.52.79-1.05 1-1.68.13-.42.01-.6-.43-.67a1.44 1.44 0 00-.23-.02h-2.63c-.33 0-.5.13-.62.4-.15.38-.31.75-.5 1.11-.41.82-.88 1.61-1.53 2.28l-.03.03c-.14.14-.3.3-.52.23-.3-.1-.39-.59-.38-.75v-2.92c-.06-.42-.16-.6-.59-.69h-2.73c-.36 0-.54.14-.74.36-.11.13-.15.21.09.25.45.08.7.37.77.8.11.7.1 1.4.04 2.1-.02.21-.06.42-.14.6-.13.3-.34.37-.62.19-.26-.17-.44-.4-.61-.65-.65-.89-1.18-1.85-1.6-2.86-.13-.29-.34-.47-.66-.47a68 68 0 00-2.36 0c-.48 0-.62.23-.42.65a27.98 27.98 0 003.06 5.25 7.53 7.53 0 002.32 2.1c1.08.6 2.23.77 3.46.72.57-.03.74-.17.76-.72.02-.38.07-.75.26-1.09.19-.33.47-.4.8-.18.17.1.3.23.44.37l.3.33.66.68c.42.42.92.66 1.54.6h2.42c.38-.02.59-.48.36-.9-.15-.29-.36-.55-.58-.8-.36-.42-.77-.8-1.18-1.17z" clip-rule="evenodd"/>
</svg>
